icons/dark/bbbutt/strk.svg

<svg xmlns="http://www.w3.org/2000/svg" viewBox="0 0 18 18"><path d="M14.07642,10.75H9.80975a5.84321,5.84321,0,0,1,1.21552.7832,2.17649,2.17649,0,0,1,.743,1.66455,2.09842,2.09842,0,0,1-.8089,1.73047,4.00507,4.00507,0,0,1-2.50977.64405,10.80629,10.80629,0,0,1-2.50982-.323A13.188,13.188,0,0,1,3.394,14.36279v2.71192A11.08794,11.08794,0,0,0,8.2572,18,7.35269,7.35269,0,0,0,12.917,16.6709a4.40741,4.40741,0,0,0,1.689-3.6648,4.7187,4.7187,0,0,0-.41919-2.05981C14.1546,10.87891,14.11285,10.81543,14.07642,10.75Z" fill="#323232"/><rect y="8.25" width="18" height="1.5" fill="#323232"/><path d="M8.60822,7.25a8.41605,8.41605,0,0,1-.93842-.50732,2.93734,2.93734,0,0,1-.94641-.916,2.25262,2.25262,0,0,1-.28742-1.168,1.98916,1.98916,0,0,1,.71888-1.60058,3.19525,3.19525,0,0,1,2.10821-.60572,10.94531,10.94531,0,0,1,4.169.98194l.9104-2.33374A12.3023,12.3023,0,0,0,9.33545,0,6.45975,6.45975,0,0,0,5.155,1.25757a4.19238,4.19238,0,0,0-1.55719,3.449A4.77962,4.77962,0,0,0,4.28412,7.25Z" fill="#323232"/></svg>

<svg xmlns="http://www.w3.org/2000/svg" viewBox="0 0 18 18"><path d="M14.06779,10.75H9.80838a5.83344,5.83344,0,0,1,1.21345.78187,2.17279,2.17279,0,0,1,.74174,1.66172,2.09486,2.09486,0,0,1-.80753,1.72753,3.99824,3.99824,0,0,1-2.5055.64295A10.78737,10.78737,0,0,1,5.945,15.24162a13.16605,13.16605,0,0,1-2.54146-.885V17.064a11.06914,11.06914,0,0,0,4.85494.92372,7.34024,7.34024,0,0,0,4.65188-1.32684,4.39994,4.39994,0,0,0,1.68612-3.65857A4.71057,4.71057,0,0,0,14.178,10.946C14.14584,10.87869,14.10416,10.81532,14.06779,10.75Z" fill="#323232"/><rect y="8.25" width="18" height="1.5" fill="#323232"/><path d="M8.60866,7.25a8.40682,8.40682,0,0,1-.93727-.5067,2.93375,2.93375,0,0,1-.94525-.91488,2.24981,2.24981,0,0,1-.28707-1.16656,1.98672,1.98672,0,0,1,.718-1.59862,3.19132,3.19132,0,0,1,2.10563-.605,10.93193,10.93193,0,0,1,4.16389.98074l.90928-2.33088A12.28708,12.28708,0,0,0,9.335.00889a6.4518,6.4518,0,0,0-4.17533,1.256A4.18728,4.18728,0,0,0,3.60439,4.70969,4.77379,4.77379,0,0,0,4.28986,7.25Z" fill="#323232"/></svg>
